X: 50
T:Pifferata Degli Abba
M:2/4
L:1/16
S:La Ciapa Rusa
R:Polka
Z:Steve Mansfield
K:G
dd |: g2d2 B2d2 | G3A G2GB | d2BG d2BG | AGAB Adef |
gfed cBAF | GFGA G2GB |dcBA DFAF |1 G4 Gdef :|2 G6 d2 |
|: BcBA G2d2 | BcBA Gdef | gfed cdBG | d2f2 d2dd |
BcBA Gddd | BcBA Gdef | gfed cBAG |1 DFAF G2B2:|2 DFAF G3|

